X:1
T:Title
%%score { ( 1 2 ) | ( 3 4 ) }
L:1/8
Q:1/4=87
M:6/8
K:G
V:1 treble nm="Grand Piano"
V:2 treble 
V:3 bass 
V:4 bass 
V:1
 B6 | c6 | c6 | [EA]3 .[B,DB]3 | B6 | z3 f3 | ^c3 .c3 | d2 d- d3 | d>ed G2 d | [Ed]3 [Ec]3 | %10
w: James~J.~Bell||||||||||
 B>cB E2 B | [CB]3 [CA]3 | [CE][DF][EG] [EA][EG]E | D3 G2 A | B3 A3 | [B,G]6 |] %16
w: ||||||
V:2
 .D2 F A2 G | G3 .[CF]3 | .E2 A E2 F | x6 | .D2 F A2 G | [Fd]3 A2 A | .G2 B g2- [Ag] | %7
 f3/2.e3/2 ABc | x6 | x6 | x6 | x6 | x6 | x6 | x6 | x6 |] %16
V:3
 z ED, [G,B,]2 D, | A,,2 D, A,2 D, | z FD, [A,C]2 D, | G,,2 D, G,2 D, | z ED, [G,B,]2 D, | %5
 A,,2 D, [F,D]2 D, | z AE, [G,A,]2 E, | z3[K:treble] CDE | %8
 [G,B,=F]>[G,B,F][G,B,F] [G,B,F]2 [G,B,F] | [C,G,]3 [C,G,]3 | %10
 [E,^G,D]>[E,G,D][E,G,D] [E,G,D]2 [E,G,D] | [A,,E,]3 [A,,E,]3 | %12
 [C,G,][C,G,][C,G,] [C,C][C,C][C,G,C] | [G,B,]3 [E,A,^C]2 [E,A,C] | [D,G,D]3 [D,F,C]3 | [G,,D,]6 |] %16
V:4
 .G,,3 z3 | x6 | .D,,3 z3 | x6 | .G,,3 z3 | x6 | .A,,3 z3 | [D,,D,]6[K:treble] | x6 | x6 | x6 | %11
 x6 | x6 | x6 | x6 | x6 |] %16

